webapp/src/assets/icons/cloudproviders/aws/compute/ec2_auto_scaling.svg

<?xml version="1.0" encoding="UTF-8"?>
<svg width="48px" height="48px" viewBox="0 0 48 48" version="1.1" xmlns="http://www.w3.org/2000/svg" xmlns:xlink="http://www.w3.org/1999/xlink">
    <title>Icon-Resource/Compute/Res_Amazon-EC2_Auto-Scaling_48</title>
    <g id="Icon-Resource/Compute/Res_Amazon-EC2_Auto-Scaling_48" stroke="none" stroke-width="1" fill="none" fill-rule="evenodd">
        <path d="M45.92,23.08125 L37.912,23.08125 L41.734,19.25825 L40.32,17.84425 L34.731,23.43525 C34.34,23.82525 34.34,24.45825 34.731,24.84925 L40.32,30.43825 L41.734,29.02425 L37.791,25.08125 L45.92,25.08125 L45.92,23.08125 Z M7.597,17.84425 L6.183,19.25825 L10.006,23.08125 L2,23.08125 L2,25.08125 L10.126,25.08125 L6.183,29.02425 L7.597,30.43825 L13.187,24.84925 C13.577,24.45825 13.577,23.82525 13.187,23.43525 L7.597,17.84425 Z M18.81,29.23125 L29.108,29.23125 L29.108,18.93225 L18.81,18.93225 L18.81,29.23125 Z M30.892,17.81025 L32.743,17.81025 L32.743,19.81025 L31.108,19.81025 L31.108,21.32425 L32.743,21.32425 L32.743,23.32425 L31.108,23.32425 L31.108,24.83825 L32.743,24.83825 L32.743,26.83825 L31.108,26.83825 L31.108,28.35225 L32.743,28.35225 L32.743,30.35225 L30.892,30.35225 C30.737,30.63125 30.509,30.85925 30.23,31.01425 L30.23,32.86525 L28.23,32.86525 L28.23,31.23025 L26.717,31.23025 L26.717,32.86525 L24.717,32.86525 L24.717,31.23025 L23.203,31.23025 L23.203,32.86525 L21.203,32.86525 L21.203,31.23025 L19.69,31.23025 L19.69,32.86525 L17.69,32.86525 L17.69,31.01425 C17.411,30.85925 17.183,30.63125 17.028,30.35225 L15.176,30.35225 L15.176,28.35225 L16.811,28.35225 L16.811,26.83825 L15.176,26.83825 L15.176,24.83825 L16.811,24.83825 L16.811,23.32425 L15.176,23.32425 L15.176,21.32425 L16.811,21.32425 L16.811,19.81025 L15.176,19.81025 L15.176,17.81025 L17.028,17.81025 C17.183,17.53125 17.411,17.30325 17.69,17.14825 L17.69,15.29825 L19.69,15.29825 L19.69,16.93225 L21.203,16.93225 L21.203,15.29825 L23.203,15.29825 L23.203,16.93225 L24.717,16.93225 L24.717,15.29825 L26.717,15.29825 L26.717,16.93225 L28.23,16.93225 L28.23,15.29825 L30.23,15.29825 L30.23,17.14825 C30.509,17.30325 30.737,17.53125 30.892,17.81025 L30.892,17.81025 Z M24.961,42.74725 L24.961,34.62225 L22.961,34.62225 L22.961,42.75125 L19.075,38.86625 L17.661,40.28025 L23.251,45.87025 C23.446,46.06525 23.702,46.16325 23.958,46.16325 C24.214,46.16325 24.47,46.06525 24.665,45.87025 L30.256,40.28025 L28.842,38.86625 L24.961,42.74725 Z M19.075,9.29725 L17.661,7.88325 L23.251,2.29325 C23.642,1.90225 24.274,1.90225 24.665,2.29325 L30.256,7.88325 L28.842,9.29725 L24.961,5.41625 L24.961,13.54125 L22.961,13.54125 L22.961,5.41225 L19.075,9.29725 Z" id="Amazon-EC2-Auto-Scaling_Resource-Icon_light-bg" fill="#ED7100"></path>
    </g>
</svg>

<svg width="48" height="48" xmlns="http://www.w3.org/2000/svg"><path d="M45.92 23.081h-8.008l3.822-3.823-1.414-1.414-5.589 5.591a.999.999 0 0 0 0 1.414l5.589 5.59 1.414-1.415-3.943-3.943h8.129v-2ZM7.597 17.844l-1.414 1.414 3.823 3.823H2v2h8.126l-3.943 3.943 1.414 1.414 5.59-5.589a1 1 0 0 0 0-1.414l-5.59-5.59ZM18.81 29.231h10.298V18.932H18.81v10.3Zm12.082-11.42h1.851v2h-1.635v1.513h1.635v2h-1.635v1.514h1.635v2h-1.635v1.514h1.635v2h-1.851a1.699 1.699 0 0 1-.662.662v1.851h-2V31.23h-1.513v1.635h-2V31.23h-1.514v1.635h-2V31.23H19.69v1.635h-2v-1.85a1.699 1.699 0 0 1-.662-.663h-1.852v-2h1.635v-1.514h-1.635v-2h1.635v-1.514h-1.635v-2h1.635V19.81h-1.635v-2h1.852c.155-.279.383-.507.662-.662v-1.85h2v1.634h1.513v-1.634h2v1.634h1.514v-1.634h2v1.634h1.513v-1.634h2v1.85c.279.155.507.383.662.662Zm-5.931 24.936v-8.125h-2v8.13l-3.886-3.886-1.414 1.414 5.59 5.59a.997.997 0 0 0 1.414 0l5.591-5.59-1.414-1.414-3.881 3.881Zm-5.886-33.45-1.414-1.414 5.59-5.59a.999.999 0 0 1 1.414 0l5.591 5.59-1.414 1.414-3.881-3.88v8.124h-2V5.412l-3.886 3.885Z" fill="#ED7100" fill-rule="evenodd"/></svg>
